public/payments/common/webpay.svg

<svg width="94" height="58" viewBox="0 0 94 58" fill="none" xmlns="http://www.w3.org/2000/svg">
<g clip-path="url(#clip0_197_135)">
<path d="M0.00178009 6.75842H4.40484L7.93372 20.2747L11.333 7.39528H14.9266L18.3906 20.2747L21.8546 6.75842H26.2577L20.559 26.1837H16.5777L13.0814 13.0567L9.68208 26.1837H5.70004L-0.000488281 6.75842H0.00178009Z" fill="white"/>
<path d="M28.3663 18.0104C28.5774 21.1242 31.3223 22.8579 33.9617 22.8225C36.2139 22.8225 37.7272 21.7964 38.6071 20.2042H43.3581C42.4431 22.3625 41.0705 23.9901 39.4517 25.087C37.8329 26.2192 35.9327 26.7855 33.9267 26.7855C27.9794 26.7855 23.7212 21.9381 23.7212 16.5245C23.7212 11.0048 28.0146 6.15732 33.8564 6.15732C36.742 6.15732 39.2758 7.25418 41.0707 9.12939C43.4285 11.5707 44.3083 14.6137 43.9212 18.0106H28.3658L28.3663 18.0104ZM39.3797 14.4715C39.2036 12.6316 37.2682 10.0486 33.8898 10.084C30.4763 10.084 28.6111 12.5607 28.4352 14.4715H39.3812H39.3797Z" fill="white"/>
<path d="M43.2513 8.40485e-06H47.8615V9.1642C49.7619 6.79361 52.542 6.15675 54.3017 6.15675C58.8765 6.15675 63.944 9.51809 63.944 16.3824C63.944 22.9636 59.3692 26.7852 54.0903 26.7852C51.0637 26.7852 48.706 25.299 47.6856 23.3883V26.1835H43.2504V-0.000183105L43.2513 8.40485e-06ZM59.3334 16.4169C59.3334 13.2324 56.905 10.4725 53.5268 10.4725C49.9372 10.4725 47.685 13.3031 47.685 16.4522C47.685 19.7075 49.9372 22.4673 53.4211 22.4673C57.1866 22.4673 59.3334 19.4599 59.3334 16.4522V16.4167V16.4169Z" fill="white"/>
<path d="M5.69296 25.809H10.0215V28.6396C11.3939 26.6937 13.6463 25.2076 16.8487 25.2076C23.6055 25.2076 26.456 30.975 26.456 35.681C26.456 41.2005 22.5498 45.8358 16.8839 45.8358C13.1184 45.8358 11.0773 43.8898 10.3031 42.6513V52.0279H5.69202V25.8119L5.69296 25.809ZM21.847 35.5036C21.847 32.7084 19.841 29.5239 15.9348 29.5239C14.2456 29.5239 12.8027 30.1961 11.747 31.2932C10.7264 32.3547 10.093 33.876 10.093 35.5745C10.093 37.2375 10.7264 38.7236 11.7822 39.7851C12.8379 40.8466 14.3158 41.5189 15.97 41.5189C19.4892 41.5189 21.847 38.7236 21.847 35.5392V35.5053V35.5036Z" fill="#FFA817"/>
<path d="M46.374 45.2343H41.764V42.4391C40.5324 44.7035 37.9633 45.8358 35.2536 45.8358C29.0598 45.8358 25.4351 40.9883 25.4351 35.504C25.4351 29.3828 29.834 25.2076 35.2536 25.2076C38.7727 25.2076 40.9195 27.0828 41.764 28.6396V25.8081H46.374V45.2333V45.2343ZM30.0441 35.6101C30.0441 38.016 31.7686 41.5189 35.9211 41.5189C38.4901 41.5189 40.1793 40.1744 41.0591 38.4051C41.5166 37.556 41.7277 36.636 41.7981 35.6808C41.8332 34.7608 41.6573 33.8054 41.2702 32.9564C40.4609 31.1163 38.666 29.5241 35.8859 29.5241C32.1556 29.5241 30.0441 32.5671 30.0441 35.5745V35.6108V35.6101Z" fill="#FFA817"/>
<path d="M51.9686 44.4907L44.6838 25.8085H49.6108L54.3265 38.7233L58.9718 25.8085H63.8986L53.7285 52.0283H48.8017L51.9697 44.4902L51.9686 44.4907Z" fill="#FFA817"/>
<path d="M78.8824 13.5625C78.6619 13.3406 78.3008 13.3406 78.0801 13.5625L66.1956 25.512C65.9749 25.7339 65.7941 25.9154 65.7941 25.9154C65.7937 25.9154 65.7937 26.1721 65.7937 26.4859V40.2353C65.7937 40.549 66.049 40.8058 66.3611 40.8058H80.0357C80.3478 40.8058 80.7838 40.6242 81.0043 40.4024L92.8892 28.4527C93.1097 28.2308 93.1097 27.8678 92.8892 27.6458L78.8818 13.5623L78.8824 13.5625Z" fill="#FF0005"/>
<path d="M67.697 26.9634H68.8341V28.0602C69.3048 27.3097 70.1087 26.7787 71.2227 26.7787C73.3701 26.7787 74.3803 28.5798 74.3803 30.1385C74.3803 31.9166 73.1059 33.4291 71.234 33.4291C69.9364 33.4291 69.1668 32.7132 68.8912 32.2052V35.5303H67.697V26.9645V26.9634ZM73.1744 30.0916C73.1744 29.0641 72.4511 27.8978 70.9927 27.8978C70.3725 27.8978 69.8327 28.1403 69.4425 28.5444C69.0635 28.9369 68.8339 29.4912 68.8339 30.1146C68.8339 30.7381 69.0635 31.2809 69.4539 31.6733C69.8443 32.0657 70.3956 32.3083 71.004 32.3083C72.2673 32.3083 73.1744 31.3269 73.1744 30.103V30.0916Z" fill="white"/>
<path d="M74.7366 24.7004H75.9308V33.2443H74.7366V24.6996V24.7004Z" fill="white"/>
<path d="M82.3833 33.2445H81.2578V32.2746C80.9593 32.921 80.2589 33.4407 79.1449 33.4291C77.1354 33.4175 76.6187 31.9513 76.6187 30.6464V26.963H77.8129V30.369C77.8129 31.5005 78.2494 32.3087 79.478 32.3087C80.6493 32.2971 81.1891 31.5467 81.1891 30.473V26.9626H82.3833V33.2427V33.2445Z" fill="white"/>
<path d="M85.8407 28.6026C85.8407 28.1176 85.5422 27.7482 84.9334 27.7598C84.3478 27.7598 84.0263 28.1523 84.0378 28.568C84.0609 29.0645 84.5086 29.2953 85.1747 29.48C86.1278 29.7454 87.1727 30.0227 87.2072 31.3734C87.23 32.5973 86.2197 33.4287 84.9795 33.4287C83.9919 33.4287 82.7632 32.8628 82.7059 31.4312H83.8886C83.9347 32.1932 84.5432 32.4473 84.9911 32.4473C85.5653 32.4473 86.013 32.0432 86.013 31.5121C86.0014 30.8887 85.5309 30.6809 84.4168 30.3114C83.5444 30.0459 82.8552 29.6302 82.8438 28.6834C82.8438 27.4943 83.8086 26.7783 84.9451 26.7783C85.8066 26.7783 86.9318 27.2054 87.0237 28.6026H85.8433H85.8407Z" fill="white"/>
</g>
<defs>
<clipPath>
<rect width="94" height="58" fill="white"/>
</clipPath>
</defs>
</svg>

<svg xmlns="http://www.w3.org/2000/svg" width="94" height="58" fill="none"><g clip-path="url(#clip0_197_135)"><path fill="#fff" d="M0 6.76h4.4l3.53 13.51 3.4-12.87h3.6l3.46 12.87 3.46-13.51h4.4l-5.7 19.42h-3.97l-3.5-13.12-3.4 13.12H5.7L0 6.76Z"/><path fill="#fff" d="M28.37 18.01c.2 3.11 2.95 4.85 5.6 4.81a4.97 4.97 0 0 0 4.64-2.62h4.75a10.95 10.95 0 0 1-3.9 4.89 9.54 9.54 0 0 1-5.53 1.7 10.2 10.2 0 0 1-10.2-10.27C23.72 11 28 6.16 33.85 6.16c2.88 0 5.42 1.1 7.21 2.97 2.36 2.44 3.24 5.48 2.85 8.88H28.37Zm11.01-3.54c-.18-1.84-2.11-4.42-5.49-4.39-3.41 0-5.28 2.48-5.45 4.4h10.94Z"/><path fill="#fff" d="M43.25 0h4.61v9.16c1.9-2.37 4.68-3 6.44-3 4.58 0 9.64 3.36 9.64 10.22 0 6.58-4.57 10.4-9.85 10.4-3.03 0-5.38-1.48-6.4-3.4v2.8h-4.44V0Zm16.08 16.42a5.83 5.83 0 0 0-5.8-5.95c-3.6 0-5.84 2.83-5.84 5.98 0 3.26 2.25 6.02 5.73 6.02 3.77 0 5.91-3.01 5.91-6.02v-.03Z"/><path fill="#FFA817" d="M5.7 25.8h4.32v2.84a8.04 8.04 0 0 1 6.83-3.43c6.76 0 9.6 5.77 9.6 10.47 0 5.52-3.9 10.16-9.57 10.16-3.76 0-5.8-1.95-6.58-3.19v9.38H5.7V25.8Zm16.15 9.7c0-2.8-2-5.98-5.92-5.98-1.68 0-3.13.68-4.18 1.77a6.16 6.16 0 0 0-1.66 4.28 5.88 5.88 0 0 0 5.88 5.94c3.52 0 5.88-2.79 5.88-5.97v-.03Z"/><path fill="#FFA817" d="M46.37 45.23h-4.6v-2.8c-1.24 2.27-3.8 3.4-6.52 3.4-6.19 0-9.81-4.84-9.81-10.33 0-6.12 4.4-10.3 9.81-10.3 3.52 0 5.67 1.88 6.51 3.44v-2.83h4.61v19.42Zm-16.33-9.62c0 2.4 1.73 5.9 5.88 5.9a5.47 5.47 0 0 0 5.14-3.1 6.08 6.08 0 0 0 .21-5.45 5.67 5.67 0 0 0-5.38-3.44c-3.73 0-5.85 3.05-5.85 6.05v.04Z"/><path fill="#FFA817" d="m51.97 44.5-7.29-18.7h4.93l4.72 12.92 4.64-12.91h4.93L53.73 52.03H48.8l3.17-7.54Z"/><path fill="#FF0005" d="M78.88 13.56a.57.57 0 0 0-.8 0L66.2 25.51l-.4.4v14.33c0 .3.25.57.56.57h13.68c.3 0 .74-.19.96-.4L92.9 28.44a.57.57 0 0 0 0-.8l-14-14.09Z"/><path fill="#fff" d="M67.7 26.96h1.13v1.1a2.71 2.71 0 0 1 2.4-1.28c2.14 0 3.15 1.8 3.15 3.36 0 1.78-1.27 3.29-3.15 3.29-1.3 0-2.06-.72-2.34-1.22v3.32h-1.2v-8.57Zm5.47 3.13c0-1.03-.72-2.2-2.18-2.2-.62 0-1.16.25-1.55.65-.38.4-.6.95-.6 1.57 0 .63.22 1.17.61 1.56.4.4.95.64 1.55.64 1.27 0 2.17-.98 2.17-2.2v-.02ZM74.74 24.7h1.2v8.54h-1.2V24.7ZM82.38 33.24h-1.12v-.97c-.3.65-1 1.17-2.12 1.16-2-.01-2.52-1.48-2.52-2.78v-3.69h1.2v3.4c0 1.14.43 1.95 1.66 1.95 1.17-.01 1.7-.76 1.7-1.84v-3.5h1.2v6.27ZM85.84 28.6c0-.48-.3-.85-.9-.84-.6 0-.91.4-.9.8.02.5.47.74 1.13.92.96.27 2 .54 2.04 1.9.02 1.22-.99 2.05-2.23 2.05-.99 0-2.22-.57-2.27-2h1.18c.04.76.65 1.02 1.1 1.02.58 0 1.02-.4 1.02-.94 0-.62-.48-.83-1.6-1.2-.87-.26-1.55-.68-1.57-1.63 0-1.19.97-1.9 2.1-1.9.87 0 2 .43 2.08 1.82h-1.18Z"/></g></svg>
